X:1
T:Eternity’s Night
T:Ella Bute Bishop
T:Eternity’s Night
T:Public Domain
T:Public Domain
T:Public Domain
C:Ella Bute Bishop
Z:Public Domain
%%score ( 1 2 ) ( 3 4 )
L:1/8
M:6/8
K:E
V:1 treble 
V:2 treble 
V:3 bass 
V:4 bass 
V:1
 (E/[EG]/) | [GB]>[^^F^A][GB] [EG][EG]([GB]/[GB]/) | [Ge]>[Fd][Ge] [GB]2 (E/[EG]/) | %3
w: 1.~O *|ner, re- mem- ber, though fair *|be life’s day, There’s on- *|
w: 2.~On~the *|of per- di- tion now blind- *|ly you tread, Its fi- *|
w: 3.~Oh,~e- *|ni- ty’s dark- ness! Its gloom *|doth af- fright, No star *|
w: 4.~Oh,~e- *|ni- ty’s dark- ness now falls *|on the shore, The twi- *|
w: 5.~The *|ior is plead- ing; there’s mer- *|cy to- day, ’Tis Je- *|
 [GB]>[GB][GB] [FB]>[FA][DF] | [EG]3- [EG]2 (E/[EG]/) | [GB]>[^^F^A][GB] [EG]>[EG][GB] | %6
w: one step to the tomb; Thy|life * like *|va- por will soon pass a-|
w: how fear- ful they gleam; Ah,|soon * you *|be with the num- ber- less|
w: of hope from on high; No|morn- * ing *|dawn on the gloom with its|
w: be- gins to ap- pear; Soon|there * will *|mer- cy, sweet mer- cy no|
w: in- vites you to come; Oh,|flee * to *|bos- om and walk in His|
 [Ge]>[Fd][Ge] [GB]2 (E/G/) | [GB]>[GB][GB] [FB]>[FA][DF] | E3- E2 ||"^Refrain" E/[EG]/ | %10
w: way, Then com- eth e- *|ni- ty’s gloom. * * *|||
w: dead, Where Je- sus can *|ver re- deem. To be lost|in *|night, in|
w: light, There com- eth no *|by and by. * * *|||
w: more, But dark- ness and *|draw- eth nigh. Last:~To be saved|from *|night, from|
w: way, ’Twill lead to the *|en- ly home. * * *|||
 [GB]>[^^F^A][GB] ([EG][EG])[GB]/[GB]/ | [Ge]>[Fd][Ge] [GB]2 (E/[EG]/) | %12
w: ||
w: ter- ni- ty’s night,” * To sink|in des- pair and in *|
w: ||
w: ter- ni- ty’s night,” * And~to walk|’mid the splen- dors a- *|
w: ||
 [GB]>[GB][GB] [FB]>[FA][DF] | [EG]3- [EG]2 (E/[EG]/) | [GB]>[^^F^A][GB] [EG]>[EG][GB] | %15
w: |||
w: But such is thy doom, if|you * turn *|the light, En- joy- ing His|
w: |||
w: To dwell in His grace and|a- * bide *|His light, En- joy- ing His|
w: |||
 [Ge]>[Fd][Ge] [GB]2 (E/G/) | [GB]>[GB][GB] [FB]>[FA][DF] | E3- E2 |] %18
w: |||
w: mer- cy and love. * *|||
w: |||
w: mer- cy and love. * *|||
w: |||
V:2
 E/ x/ | x6 | x5 E/ x/ | x6 | x5 E/ x/ | x6 | x5 E | x6 | E3- E2 || E/ x/ | x6 | x5 E/ x/ | x6 | %13
w: sin-||ly||a||ter-|||||||
w: edge||res||will||ne-||the *|“e-||woe!||
w: ter-||beams||shall||sweet|||||||
w: ter-||light||be||death||the *|“e-||bove!||
w: Sav-||sus||His||heav-|||||||
 x5 E/ x/ | x6 | x5 E | x6 | E3- E2 |] %18
w: |||||
w: from|||||
w: |||||
w: in|||||
w: |||||
V:3
 ([E,B,]/[E,B,]/) | [E,E]>[E,E][E,E] [E,B,][E,B,]([E,E]/[E,E]/) | %2
 [E,B,]>[E,B,][E,B,] [E,E]2 ([E,B,]/[E,B,]/) | [E,E]>[E,E][E,E] [B,,D]>[B,,D][B,,B,] | %4
 [E,B,]3- [E,B,]2 ([E,G,]/[E,B,]/) | [E,E]>[E,E][E,E] [E,B,]>[E,B,][E,E] | %6
 [E,B,]>[E,B,][E,B,] [E,E]2 (G,/B,/) | [E,E]>[E,E][E,E] [B,,D]>[B,,D][B,,B,] | [E,G,]3- [E,G,]2 || %9
 [E,B,]/[E,B,]/ | [E,E]>[E,E][E,E] ([E,B,][E,B,])[E,E]/[E,E]/ | %11
 [E,B,]>[E,B,][E,B,] [E,E]2 ([E,B,]/[E,B,]/) | [E,E]>[E,E][E,E] [B,,D]>[B,,D][B,,B,] | %13
 [E,B,]3- [E,B,]2 ([E,G,]/[E,B,]/) | [E,E]>[E,E][E,E] [E,B,]>[E,B,][E,E] | %15
 [E,B,]>[E,B,][E,B,] [E,E]2 (G,/B,/) | [E,E]>[E,E][E,E] [B,,D]>[B,,D][B,,B,] | [E,G,]3- [E,G,]2 |] %18
V:4
 x | x6 | x6 | x6 | x6 | x6 | x5 E, | x6 | x5 || x | x6 | x6 | x6 | x6 | x6 | x5 E, | x6 | x5 |] %18

